brandFactory_export/3.Masa/Ubicacion _3Masa.svg

<?xml version="1.0" encoding="UTF-8"?>
<svg width="24px" height="24px" viewBox="0 0 24 24" version="1.1" xmlns="http://www.w3.org/2000/svg" xmlns:xlink="http://www.w3.org/1999/xlink">
    <title>3.Masa/Ubicacion _3Masa</title>
    <g id="Symbols" stroke="none" stroke-width="1" fill="none" fill-rule="evenodd">
        <g id="3.Masa/Ubicacion-_3Masa" fill="#5CB615" fill-rule="nonzero">
            <path d="M12.3932773,0 C17.6336134,0.0168067227 20.7495798,3.17310924 20.7361778,8.45042017 C20.7193277,13.5865546 14.3193277,21.8352941 12.6823529,23.4823529 C12.5882353,23.5764706 12.4638655,23.6268908 12.3361345,23.6268908 C12.2117647,23.6268908 12.087395,23.5798319 11.989916,23.4823529 C10.3596639,21.8420168 3.98655462,13.5865546 3.99997876,8.4 C4.00672269,5.79495798 4.77647059,3.65042017 6.22521008,2.20168067 C7.66386555,0.759663866 9.78151261,0 12.3529412,0 L12.3932773,0 Z M15.4184874,7.91596639 C15.4184874,6.03697479 14.2957983,4.91764706 12.4201681,4.91764706 C10.5445378,4.91764706 9.42184874,6.04033613 9.42184874,7.91596639 C9.42184874,9.79495798 10.5445378,10.9142857 12.4201681,10.9142857 C14.2991597,10.9142857 15.4184874,9.79495798 15.4184874,7.91596639 Z" id="Ubicacion-_3Masa"></path>
        </g>
    </g>
</svg>

<svg width="24" height="24" viewBox="0 0 24 24" xmlns="http://www.w3.org/2000/svg"><path d="M12.393 0c5.24.017 8.357 3.173 8.343 8.45-.017 5.137-6.417 13.385-8.054 15.032a.489.489 0 01-.692 0C10.36 21.842 3.987 13.587 4 8.4c.007-2.605.776-4.75 2.225-6.198C7.664.76 9.782 0 12.353 0h.04zm3.025 7.916c0-1.879-1.122-2.998-2.998-2.998-1.875 0-2.998 1.122-2.998 2.998 0 1.879 1.123 2.998 2.998 2.998 1.88 0 2.998-1.119 2.998-2.998z" fill="#5CB615" fill-rule="nonzero"/></svg>
